X: 32622
T: Playing In The Rafters
R: jig
M: 6/8
K: Aminor
|:EAA EAA|ABc BAG|EAA ABA|~F3 FED|
EAA EAA|ABc BAG|efe dcB|1 cAG A2G:|2 cAG Ace||
|:~a3 age|aba ged|cee Bee|cBA BAG|
EAA ABc|BAG E^FG|eag edB|1 cAG A2e:|2 cAG A2G||

